svgs/regular/goal-net.svg

<svg xmlns="http://www.w3.org/2000/svg" viewBox="0 0 640 512"><!--! Font Awesome Pro 6.6.0 by @fontawesome - https://fontawesome.com License - https://fontawesome.com/license (Commercial License) Copyright 2024 Fonticons, Inc. --><path d="M48 120c0-22.1 17.9-40 40-40l464 0c22.1 0 40 17.9 40 40l0 336c0 13.3 10.7 24 24 24s24-10.7 24-24l0-336c0-48.6-39.4-88-88-88L88 32C39.4 32 0 71.4 0 120L0 456c0 13.3 10.7 24 24 24s24-10.7 24-24l0-336zm128 8c-8.8 0-16 7.2-16 16l0 48-48 0c-8.8 0-16 7.2-16 16s7.2 16 16 16l48 0 0 64-48 0c-8.8 0-16 7.2-16 16s7.2 16 16 16l48 0 0 64-48 0c-8.8 0-16 7.2-16 16s7.2 16 16 16l48 0 0 48c0 8.8 7.2 16 16 16s16-7.2 16-16l0-48 64 0 0 48c0 8.8 7.2 16 16 16s16-7.2 16-16l0-48 64 0 0 48c0 8.8 7.2 16 16 16s16-7.2 16-16l0-48 64 0 0 48c0 8.8 7.2 16 16 16s16-7.2 16-16l0-48 48 0c8.8 0 16-7.2 16-16s-7.2-16-16-16l-48 0 0-64 48 0c8.8 0 16-7.2 16-16s-7.2-16-16-16l-48 0 0-64 48 0c8.8 0 16-7.2 16-16s-7.2-16-16-16l-48 0 0-48c0-8.8-7.2-16-16-16s-16 7.2-16 16l0 48-64 0 0-48c0-8.8-7.2-16-16-16s-16 7.2-16 16l0 48-64 0 0-48c0-8.8-7.2-16-16-16s-16 7.2-16 16l0 48-64 0 0-48c0-8.8-7.2-16-16-16zm80 256l-64 0 0-64 64 0 0 64zm96 0l-64 0 0-64 64 0 0 64zm96 0l-64 0 0-64 64 0 0 64zm0-96l-64 0 0-64 64 0 0 64zm-96 0l-64 0 0-64 64 0 0 64zm-96 0l-64 0 0-64 64 0 0 64z"/></svg>

<svg xmlns="http://www.w3.org/2000/svg" viewBox="0 0 640 512"><!--! Font Awesome Pro 6.4.0 by @fontawesome - https://fontawesome.com License - https://fontawesome.com/license (Commercial License) Copyright 2023 Fonticons, Inc. --><path d="M48 120c0-22.1 17.9-40 40-40H552c22.1 0 40 17.9 40 40V456c0 13.3 10.7 24 24 24s24-10.7 24-24V120c0-48.6-39.4-88-88-88H88C39.4 32 0 71.4 0 120V456c0 13.3 10.7 24 24 24s24-10.7 24-24V120zm128 8c-8.8 0-16 7.2-16 16v48H112c-8.8 0-16 7.2-16 16s7.2 16 16 16h48v64H112c-8.8 0-16 7.2-16 16s7.2 16 16 16h48v64H112c-8.8 0-16 7.2-16 16s7.2 16 16 16h48v48c0 8.8 7.2 16 16 16s16-7.2 16-16V416h64v48c0 8.8 7.2 16 16 16s16-7.2 16-16V416h64v48c0 8.8 7.2 16 16 16s16-7.2 16-16V416h64v48c0 8.8 7.2 16 16 16s16-7.2 16-16V416h48c8.8 0 16-7.2 16-16s-7.2-16-16-16H480V320h48c8.8 0 16-7.2 16-16s-7.2-16-16-16H480V224h48c8.8 0 16-7.2 16-16s-7.2-16-16-16H480V144c0-8.8-7.2-16-16-16s-16 7.2-16 16v48H384V144c0-8.8-7.2-16-16-16s-16 7.2-16 16v48H288V144c0-8.8-7.2-16-16-16s-16 7.2-16 16v48H192V144c0-8.8-7.2-16-16-16zm80 256H192V320h64v64zm96 0H288V320h64v64zm96 0H384V320h64v64zm0-96H384V224h64v64zm-96 0H288V224h64v64zm-96 0H192V224h64v64z"/></svg>
